svg/advertisements.svg

<svg xmlns="http://www.w3.org/2000/svg" viewBox="0 0 24 24"><path d="M19 7c-1.1 0-2 .9-2 2v2c0 1.1.9 2 2 2h2v2h-4v2h4c1.1 0 2-.9 2-2v-2c0-1.1-.9-2-2-2h-2V9h4V7zM9 7v10h4c1.1 0 2-.9 2-2V9c0-1.1-.9-2-2-2zm2 2h2v6h-2zM3 7c-1.1 0-2 .9-2 2v8h2v-4h2v4h2V9c0-1.1-.9-2-2-2zm0 2h2v2H3z"/></svg>

<svg xmlns="http://www.w3.org/2000/svg" id="mdi-advertisements" viewBox="0 0 24 24"><path d="M19 7C17.9 7 17 7.9 17 9V11C17 12.1 17.9 13 19 13H21V15H17V17H21C22.1 17 23 16.1 23 15V13C23 11.9 22.1 11 21 11H19V9H23V7H19M9 7V17H13C14.1 17 15 16.1 15 15V9C15 7.9 14.1 7 13 7H9M11 9H13V15H11V9M3 7C1.9 7 1 7.9 1 9V17H3V13H5V17H7V9C7 7.9 6.1 7 5 7H3M3 9H5V11H3V9Z" /></svg>
